src/assets/icons/mail.svg

<svg width="14" height="11" viewBox="0 0 14 11" fill="none" xmlns="http://www.w3.org/2000/svg">
<path d="M14 2.85408V8.88461C14 9.44565 13.7695 9.98371 13.3593 10.3804C12.9491 10.7771 12.3927 11 11.8125 11H2.1875C1.60734 11 1.05094 10.7771 0.640704 10.3804C0.230468 9.98371 0 9.44565 0 8.88461V2.85408L6.77775 6.71085C6.84508 6.74925 6.92183 6.7695 7 6.7695C7.07817 6.7695 7.15492 6.74925 7.22225 6.71085L14 2.85408ZM11.8125 2.61907e-08C12.3508 -8.18366e-05 12.8701 0.191744 13.2713 0.53878C13.6725 0.885816 13.9272 1.3637 13.9869 1.881L7 5.85538L0.0131251 1.881C0.0727635 1.3637 0.327533 0.885816 0.728696 0.53878C1.12986 0.191744 1.64925 -8.18366e-05 2.1875 2.61907e-08H11.8125Z" fill="#1A1A1A"/>
</svg>

<svg xmlns="http://www.w3.org/2000/svg" width="14" height="11" fill="none"><path fill="#1A1A1A" d="M14 2.85v6.03c0 .57-.23 1.1-.64 1.5-.41.4-.97.62-1.55.62H2.2c-.58 0-1.14-.22-1.55-.62-.41-.4-.64-.93-.64-1.5V2.85l6.78 3.86a.45.45 0 0 0 .44 0L14 2.85ZM11.81 0c.54 0 1.06.2 1.46.54.4.35.66.82.72 1.34L7 5.86.01 1.88C.07 1.36.33.88.73.54 1.13.19 1.65 0 2.19 0h9.62Z"/></svg>
